Obsidian-SemiLight/actions/24s/edit-table-insert-row-below.svg

<svg viewBox="0 0 24 24" xmlns="http://www.w3.org/2000/svg"><path d="m4 4v10 6h1v-6-4h1 1v4h1v-4h2v4h1v-4h2v4 6h1v-6-4h2v4h1v-4h2v4h1v-9-1h-15zm1 1h2v3 1h-1-1zm3 0h2v4h-2v-1zm3 0h2v4h-2zm3 0h2v3 1h-2zm3 0h2v4h-.900391-1.099609v-1zm-2 10 2.5 5 2.5-5z" fill="#4d4d4d"/><path d="m5 14v1h4.2929688l-4 4h-.2929688v1h8v-1h-2.292969l2.292969-2.292969v-1.414062l-3.7070312 3.707031h-2.5859376l3.9999998-4h2.292969v-1h-2.707031z" fill="#3daee9"/></svg>

<svg xmlns="http://www.w3.org/2000/svg" viewBox="0 0 24 24">
  <defs id="defs3051">
    <style type="text/css" id="current-color-scheme">
      .ColorScheme-Text {
        color:#4d4d4d;
      }
      .ColorScheme-Highlight {
        color:#3daee9;
      }
      </style>
  </defs>
 <path 
     style="fill:currentColor;fill-opacity:1;stroke:none" 
     d="M 4 4 L 4 14 L 4 20 L 5 20 L 5 14 L 5 10 L 6 10 L 7 10 L 7 14 L 8 14 L 8 10 L 10 10 L 10 14 L 11 14 L 11 10 L 13 10 L 13 14 L 13 20 L 14 20 L 14 14 L 14 10 L 16 10 L 16 14 L 17 14 L 17 10 L 19 10 L 19 14 L 20 14 L 20 5 L 20 4 L 5 4 L 4 4 z M 5 5 L 7 5 L 7 8 L 7 9 L 6 9 L 5 9 L 5 5 z M 8 5 L 10 5 L 10 9 L 8 9 L 8 8 L 8 5 z M 11 5 L 13 5 L 13 9 L 11 9 L 11 5 z M 14 5 L 16 5 L 16 8 L 16 9 L 14 9 L 14 5 z M 17 5 L 19 5 L 19 9 L 18.099609 9 L 17 9 L 17 8 L 17 5 z M 15 15 L 17.5 20 L 20 15 L 15 15 z "
     class="ColorScheme-Text"
     />
 <path 
     style="fill:currentColor;fill-opacity:1;stroke:none" 
     d="M 5 14 L 5 15 L 9.2929688 15 L 5.2929688 19 L 5 19 L 5 20 L 13 20 L 13 19 L 10.707031 19 L 13 16.707031 L 13 15.292969 L 9.2929688 19 L 6.7070312 19 L 10.707031 15 L 13 15 L 13 14 L 10.292969 14 L 5 14 z "
     class="ColorScheme-Highlight"
     />
</svg>
